X:1
T: Jeannie's Blue E'en
C:
R:Jig
Q:180
K:D
M:6/8
L:1/16
A2|d2c2d2 A2F2A2|d2c2d2 e4g2|f2e2d2 a2g2f2|e2f2d2 c4A2|d2c2d2 A2F2A2|d2c2d2 e4g2|f2e2d2 A2d2c2|d6d4A2|
d2c2d2 A2F2A2|d2c2d2 e4g2|f2e2d2 a2g2f2|e2f2d2 c4A2|d2c2d2 A2F2A2|d2c2d2 e4g2|f2e2d2 A2d2c2|d6d4e2|
f4f2 f2e2f2|g4g2 g2b2g2|e4e2 e2d2e2|f4f2 f2a2f2|d4d2 d2c2d2|e4e2 e2f2g2|f2e2d2 A2d2c2|d6d4e2|
f4f2 f2e2f2|g4g2 g2b2g2|e4e2 e2d2e2|f4f2 f2a2f2|d4d2 d2c2d2|e4e2 e2f2g2|f2e2d2 A2d2c2|d6d4||
